img/question.svg

<svg width="28" height="27" viewBox="0 0 28 27" fill="none" xmlns="http://www.w3.org/2000/svg">
<path d="M14 21.2783C14.7551 21.2783 15.3672 20.6881 15.3672 19.96C15.3672 19.2319 14.7551 18.6416 14 18.6416C13.2449 18.6416 12.6328 19.2319 12.6328 19.96C12.6328 20.6881 13.2449 21.2783 14 21.2783Z" fill="url(#paint0_linear)"/>
<path d="M14 0C6.26259 0 0 6.03793 0 13.5C0 20.9611 6.26155 27 14 27C21.7374 27 28 20.9621 28 13.5C28 6.03893 21.7384 0 14 0ZM14 24.8906C7.47157 24.8906 2.1875 19.7961 2.1875 13.5C2.1875 7.20473 7.4707 2.10938 14 2.10938C20.5284 2.10938 25.8125 7.20389 25.8125 13.5C25.8125 19.7953 20.5293 24.8906 14 24.8906Z" fill="url(#paint1_linear)"/>
<path d="M14 6.77637C11.5876 6.77637 9.625 8.6689 9.625 10.9951C9.625 11.5776 10.1147 12.0498 10.7188 12.0498C11.3228 12.0498 11.8125 11.5776 11.8125 10.9951C11.8125 9.83201 12.7938 8.88574 14 8.88574C15.2062 8.88574 16.1875 9.83201 16.1875 10.9951C16.1875 12.1582 15.2062 13.1045 14 13.1045C13.3959 13.1045 12.9062 13.5767 12.9062 14.1592V16.7959C12.9062 17.3784 13.3959 17.8506 14 17.8506C14.6041 17.8506 15.0938 17.3784 15.0938 16.7959V15.0804C16.9786 14.6109 18.375 12.9573 18.375 10.9951C18.375 8.6689 16.4124 6.77637 14 6.77637Z" fill="url(#paint2_linear)"/>
<defs>
<linearGradient id="paint0_linear" x1="13.3359" y1="19.1689" x2="14.991" y2="21.3369" gradientUnits="userSpaceOnUse">
<stop stop-color="#FFD44D"/>
<stop offset="1" stop-color="#FF844D"/>
</linearGradient>
<linearGradient id="paint1_linear" x1="7.2" y1="5.4" x2="24.1473" y2="27.6" gradientUnits="userSpaceOnUse">
<stop stop-color="#FFD44D"/>
<stop offset="1" stop-color="#FF844D"/>
</linearGradient>
<linearGradient id="paint2_linear" x1="11.875" y1="8.99121" x2="19.0809" y2="16.1831" gradientUnits="userSpaceOnUse">
<stop stop-color="#FFD44D"/>
<stop offset="1" stop-color="#FF844D"/>
</linearGradient>
</defs>
</svg>

<svg width="28" height="27" viewBox="0 0 28 27" fill="none" xmlns="http://www.w3.org/2000/svg"><path d="M14 21.278c.755 0 1.367-.59 1.367-1.318 0-.728-.612-1.318-1.367-1.318s-1.367.59-1.367 1.318c0 .728.612 1.318 1.367 1.318z" fill="url(#paint0_linear)"/><path d="M14 0C6.263 0 0 6.038 0 13.5 0 20.961 6.262 27 14 27c7.737 0 14-6.038 14-13.5C28 6.039 21.738 0 14 0zm0 24.89c-6.528 0-11.813-5.094-11.813-11.39C2.188 7.205 7.471 2.11 14 2.11c6.528 0 11.813 5.094 11.813 11.39 0 6.295-5.284 11.39-11.813 11.39z" fill="url(#paint1_linear)"/><path d="M14 6.776c-2.412 0-4.375 1.893-4.375 4.22 0 .582.49 1.054 1.094 1.054.604 0 1.094-.472 1.094-1.055 0-1.163.98-2.11 2.187-2.11 1.206 0 2.188.947 2.188 2.11 0 1.163-.982 2.11-2.188 2.11-.604 0-1.094.472-1.094 1.054v2.637c0 .582.49 1.055 1.094 1.055.604 0 1.094-.473 1.094-1.055V15.08c1.885-.47 3.281-2.123 3.281-4.085 0-2.326-1.963-4.219-4.375-4.219z" fill="url(#paint2_linear)"/><defs><linearGradient id="paint0_linear" x1="13.336" y1="19.169" x2="14.991" y2="21.337" gradientUnits="userSpaceOnUse"><stop stop-color="#FFD44D"/><stop offset="1" stop-color="#FF844D"/></linearGradient><linearGradient id="paint1_linear" x1="7.2" y1="5.4" x2="24.147" y2="27.6" gradientUnits="userSpaceOnUse"><stop stop-color="#FFD44D"/><stop offset="1" stop-color="#FF844D"/></linearGradient><linearGradient id="paint2_linear" x1="11.875" y1="8.991" x2="19.081" y2="16.183" gradientUnits="userSpaceOnUse"><stop stop-color="#FFD44D"/><stop offset="1" stop-color="#FF844D"/></linearGradient></defs></svg>
